X: 23578
T: Lights Of Ranzanico
R: jig
M: 6/8
K: Bminor
B2 A BFF|B2 A Bee|B2 A BFF|EFA BcA|
B2 A BFF|B2 A Bed|cBA BAF|EFA BeA||
B2 f edc|B2 F AB/c/d|e2 f cBA|FAB cfA|
B2 f edc|B2 F AB/c/d|e2 d cBA|EFA BcA||

